src/icons/list-ordered.svg

<svg width="16" height="16" viewBox="0 0 16 16" fill="none" xmlns="http://www.w3.org/2000/svg">
<path fill-rule="evenodd" clip-rule="evenodd" d="M2.28735 2.326L2.69235 2H3.36935V5H2.66135V2.792L2.28735 3.073V2.326ZM5.00024 3H15.0002V4H5.00024V3ZM5.00024 7H15.0002V8H5.00024V7ZM15.0002 11H5.00024V12H15.0002V11ZM3.74224 7.62606L3.77079 7.58715C3.79314 7.55685 3.81518 7.52695 3.83624 7.49606C3.86802 7.45161 3.89516 7.40403 3.91724 7.35406C3.94123 7.30111 3.95966 7.24581 3.97224 7.18906C3.98622 7.12332 3.99293 7.05625 3.99224 6.98906C3.99236 6.86909 3.97311 6.74989 3.93524 6.63606C3.89725 6.51709 3.83345 6.40799 3.74839 6.31654C3.66334 6.2251 3.55915 6.15356 3.44324 6.10706C3.29984 6.04887 3.14595 6.02095 2.99124 6.02506C2.8341 6.02081 2.67789 6.05049 2.53324 6.11206C2.41632 6.16344 2.31167 6.23911 2.22624 6.33406C2.14935 6.42149 2.09085 6.52352 2.05424 6.63406C2.01927 6.73819 2.00104 6.84721 2.00024 6.95706V7.00606H2.81024V6.95706C2.81061 6.92997 2.81465 6.90306 2.82224 6.87706C2.82849 6.84943 2.84004 6.82328 2.85624 6.80006C2.87088 6.77795 2.89038 6.75948 2.91324 6.74606C2.93989 6.73253 2.96936 6.72548 2.99924 6.72548C3.02913 6.72548 3.05859 6.73253 3.08524 6.74606C3.1081 6.76169 3.12722 6.78218 3.14124 6.80606C3.15641 6.83095 3.16692 6.8584 3.17224 6.88706C3.17784 6.91438 3.18085 6.94217 3.18124 6.97006C3.18324 7.04136 3.1678 7.11208 3.13624 7.17606C3.10143 7.2403 3.06129 7.30152 3.01624 7.35906L2.01624 8.49706L2.00424 8.51006V9.05006H3.99224V8.35006H3.09224L3.74224 7.62606ZM3.70524 11.443C3.7509 11.4745 3.79138 11.513 3.82524 11.557C3.87354 11.6218 3.91227 11.6931 3.94024 11.769C3.97823 11.8775 3.99586 11.9921 3.99224 12.107C3.99177 12.2136 3.97491 12.3195 3.94224 12.421C3.90698 12.5287 3.84901 12.6276 3.77224 12.711C3.68317 12.8033 3.57497 12.8749 3.45524 12.921C3.30173 12.9776 3.13881 13.0044 2.97524 13C2.85978 13.0005 2.74488 12.984 2.63424 12.951C2.54245 12.9234 2.45544 12.8819 2.37624 12.828C2.30595 12.7797 2.2444 12.7199 2.19424 12.651C2.14841 12.5887 2.10952 12.5217 2.07824 12.451C2.05122 12.3865 2.03078 12.3195 2.01724 12.251C2.00648 12.1939 2.0008 12.136 2.00024 12.078V12.029H2.81424V12.078C2.81441 12.1055 2.81743 12.133 2.82324 12.16C2.82832 12.1863 2.83851 12.2115 2.85324 12.234C2.86587 12.2558 2.88419 12.2738 2.90624 12.286C2.93052 12.2978 2.95694 12.3047 2.98393 12.306C3.01091 12.3074 3.03789 12.3033 3.06324 12.294C3.08453 12.2852 3.10364 12.2719 3.11924 12.255C3.13804 12.233 3.15231 12.2075 3.16124 12.18C3.17332 12.1391 3.17905 12.0966 3.17824 12.054C3.18028 11.9988 3.17284 11.9436 3.15624 11.891C3.14591 11.8606 3.12841 11.8332 3.10524 11.811C3.08789 11.7966 3.0673 11.7866 3.04524 11.782C3.01977 11.7778 2.99404 11.7755 2.96824 11.775H2.80724V11.13H2.97524C2.99866 11.1297 3.02191 11.126 3.04424 11.119C3.06821 11.1127 3.09044 11.1011 3.10924 11.085C3.13035 11.0668 3.14681 11.0438 3.15724 11.018C3.17292 10.9796 3.18009 10.9383 3.17824 10.897C3.17903 10.8629 3.17361 10.829 3.16224 10.797C3.15386 10.7732 3.14019 10.7517 3.12224 10.734C3.10614 10.7179 3.08667 10.7056 3.06524 10.698C3.0401 10.6886 3.01333 10.6844 2.98653 10.6856C2.95973 10.6868 2.93345 10.6934 2.90924 10.705C2.887 10.7181 2.86815 10.7362 2.85424 10.758C2.84026 10.7812 2.83013 10.8065 2.82424 10.833C2.81771 10.8595 2.81435 10.8867 2.81424 10.914V10.963H2.00024V10.914C2.00286 10.796 2.02656 10.6795 2.07024 10.57C2.09944 10.4995 2.13633 10.4324 2.18024 10.37C2.22945 10.2987 2.2899 10.2359 2.35924 10.184C2.43843 10.1251 2.52702 10.0802 2.62124 10.051C2.7357 10.0149 2.85526 9.99764 2.97524 9.99996C3.09092 9.99866 3.20635 10.0107 3.31924 10.036C3.41096 10.0575 3.49941 10.0911 3.58224 10.136C3.65433 10.1739 3.71983 10.2232 3.77624 10.282C3.82573 10.3334 3.86811 10.3913 3.90224 10.454C3.93299 10.5103 3.95618 10.5705 3.97124 10.633C3.98481 10.6879 3.99186 10.7443 3.99224 10.801C3.99537 10.911 3.97738 11.0207 3.93924 11.124C3.9114 11.1975 3.873 11.2665 3.82524 11.329C3.79111 11.3727 3.75067 11.4111 3.70524 11.443Z" fill="white"/>
</svg>

<svg width="16" height="16" xmlns="http://www.w3.org/2000/svg"><path fill-rule="evenodd" clip-rule="evenodd" d="M2.287 2.326L2.692 2h.677v3h-.708V2.792l-.374.281v-.747zM5 3h10v1H5V3zm0 4h10v1H5V7zm10 4H5v1h10v-1zM3.742 7.626l.029-.039.065-.09a.84.84 0 0 0 .156-.507c0-.12-.019-.24-.057-.354a.848.848 0 0 0-.492-.529 1.123 1.123 0 0 0-.452-.082 1.094 1.094 0 0 0-.458.087.867.867 0 0 0-.479.522A1.038 1.038 0 0 0 2 6.957v.05h.81v-.05a.3.3 0 0 1 .046-.157.174.174 0 0 1 .057-.054.19.19 0 0 1 .172 0 .188.188 0 0 1 .056.06.24.24 0 0 1 .031.081.444.444 0 0 1-.036.29 1.307 1.307 0 0 1-.12.182l-1 1.138-.012.013v.54h1.988v-.7h-.9l.65-.724zm-.037 3.817c.046.032.086.07.12.114a.841.841 0 0 1 .167.55c0 .107-.017.213-.05.314a.792.792 0 0 1-.487.5 1.287 1.287 0 0 1-.48.079c-.115 0-.23-.016-.34-.049a.94.94 0 0 1-.259-.123.751.751 0 0 1-.182-.177 1.064 1.064 0 0 1-.116-.2A1.04 1.04 0 0 1 2 12.078v-.049h.814v.049c0 .027.003.055.01.082a.207.207 0 0 0 .03.074.14.14 0 0 0 .052.052.2.2 0 0 0 .157.008.159.159 0 0 0 .056-.039.22.22 0 0 0 .042-.075.417.417 0 0 0 .017-.126.483.483 0 0 0-.022-.163.2.2 0 0 0-.05-.08.138.138 0 0 0-.06-.029.537.537 0 0 0-.078-.007h-.16v-.645h.167a.241.241 0 0 0 .07-.011.164.164 0 0 0 .064-.034.175.175 0 0 0 .048-.067.286.286 0 0 0 .021-.121.28.28 0 0 0-.016-.1.166.166 0 0 0-.097-.099.2.2 0 0 0-.156.007.164.164 0 0 0-.055.053.344.344 0 0 0-.04.156v.049H2v-.049a.988.988 0 0 1 .18-.544.8.8 0 0 1 .18-.186.87.87 0 0 1 .261-.133A1.12 1.12 0 0 1 2.975 10c.116-.001.231.01.344.036.092.021.18.055.263.1a.757.757 0 0 1 .32.318.73.73 0 0 1 .09.347.81.81 0 0 1-.167.528.562.562 0 0 1-.12.114z"/></svg>
